app/assets/images/payment_icons/alliancebank.svg

<svg xmlns="http://www.w3.org/2000/svg" width="38" height="24" viewBox="0 0 38 24" fill="none" aria-labelledby="pi-alliancebank" role="img"><title id="pi-alliancebank">Alliance Bank</title><rect width="38" height="24" fill="white"/><path d="M26.4704 5.75476H11.6144V20H26.4704V5.75476Z" fill="#2A3768"/><path d="M26.4704 18.0391H11.6144V20H26.4704V18.0391Z" fill="#E20613"/><path d="M19.0986 4L10 18.0391H28.1969L19.0986 4Z" fill="#2A3768"/><path d="M19.0986 5.13507V13.4471L16.4902 17.4719H11.1017L19.0986 5.13507Z" fill="url(#pi-alliance_bank_linear_gradient_a)"/><path d="M19.0986 5.13507V13.4471L21.7069 17.4719H27.0953L19.0986 5.13507Z" fill="url(#pi-alliance_bank_linear_gradient_b)"/><defs><linearGradient id="pi-alliance_bank_linear_gradient_a" x1="19.0271" y1="13.5708" x2="14.7722" y2="11.1142" gradientUnits="userSpaceOnUse"><stop stop-color="#636362"/><stop offset="0.0132" stop-color="#6B6B6A"/><stop offset="0.0958" stop-color="#989897"/><stop offset="0.1788" stop-color="#BDBDBD"/><stop offset="0.2612" stop-color="#DADADA"/><stop offset="0.3426" stop-color="#EEEEEE"/><stop offset="0.4227" stop-color="#FBFBFB"/><stop offset="0.5" stop-color="white"/></linearGradient><linearGradient id="pi-alliance_bank_linear_gradient_b" x1="19.17" y1="13.5707" x2="23.4247" y2="11.1143" gradientUnits="userSpaceOnUse"><stop stop-color="#636362"/><stop offset="0.0132" stop-color="#6B6B6A"/><stop offset="0.0958" stop-color="#989897"/><stop offset="0.1788" stop-color="#BDBDBD"/><stop offset="0.2612" stop-color="#DADADA"/><stop offset="0.3426" stop-color="#EEEEEE"/><stop offset="0.4227" stop-color="#FBFBFB"/><stop offset="0.5" stop-color="white"/></linearGradient></defs></svg>

<svg xmlns="http://www.w3.org/2000/svg" role="img" viewBox="0 0 38 24" width="38" height="24" aria-labelledby="pi-alliancebank"><title id="pi-alliancebank">Alliance Bank</title>  <g clip-path="url(#pi-alliancebank-a)"><path fill="#000" d="M35 0H3C1.3 0 0 1.3 0 3v18c0 1.7 1.4 3 3 3h32c1.7 0 3-1.3 3-3V3c0-1.7-1.4-3-3-3Z" opacity=".07"/><path fill="#fff" d="M35 1c1.1 0 2 .9 2 2v18c0 1.1-.9 2-2 2H3c-1.1 0-2-.9-2-2V3c0-1.1.9-2 2-2h32Z"/><path fill="#2A3768" d="M26.47 5.755H11.614V20H26.47V5.755Z"/><path fill="#E20613" d="M26.47 18.04H11.614V20H26.47v-1.96Z"/><path fill="#2A3768" d="M19.099 4 10 18.04h18.197L19.099 4Z"/><path fill="url(#pi-alliancebank-b)" d="M19.099 5.135v8.312l-2.609 4.025h-5.388l7.997-12.337Z"/><path fill="url(#pi-alliancebank-c)" d="M19.099 5.135v8.312l2.608 4.025h5.388L19.1 5.135Z"/></g><defs><linearGradient id="pi-alliancebank-b" x1="19.027" x2="14.772" y1="13.571" y2="11.114" gradientUnits="userSpaceOnUse"><stop stop-color="#636362"/><stop offset=".013" stop-color="#6B6B6A"/><stop offset=".096" stop-color="#989897"/><stop offset=".179" stop-color="#BDBDBD"/><stop offset=".261" stop-color="#DADADA"/><stop offset=".343" stop-color="#EEE"/><stop offset=".423" stop-color="#FBFBFB"/><stop offset=".5" stop-color="#fff"/></linearGradient><linearGradient id="pi-alliancebank-c" x1="19.17" x2="23.425" y1="13.571" y2="11.114" gradientUnits="userSpaceOnUse"><stop stop-color="#636362"/><stop offset=".013" stop-color="#6B6B6A"/><stop offset=".096" stop-color="#989897"/><stop offset=".179" stop-color="#BDBDBD"/><stop offset=".261" stop-color="#DADADA"/><stop offset=".343" stop-color="#EEE"/><stop offset=".423" stop-color="#FBFBFB"/><stop offset=".5" stop-color="#fff"/></linearGradient><clipPath id="pi-alliancebank-a"><path fill="#fff" d="M0 0h38v24H0z"/></clipPath></defs></svg>
